!!!!SEGMENT: pl-sa--l-1643--016_anonim--quis-mihi-det-te-fratrem-meum.krn
!!!cenid: 16xx:1371
!!!COM: Anonim
!!!COM-rismID: pe30004985
!!!CDT:
!!!CNT:
!!!OTL: Quis mihi det te fratrem meum
!!!PDT:
!!!AGN: Sacred
!!!SMS-siglum: PL-SA
!!!SMS-shelfmark: L 1643
!!!SMS-shelfwork: 016 W
!!!SMS-variant:
!!!SMS-altvar:
!!!NIFC-rismSourceID: 1001064666
!!!NIFC-islandoraID:
!!!URL-pdf-islandora:
!!!URL-scan:
!!!ONB-nifc: UWAGA: 8 ksiąg. Primi chori: 1mus Cantus (x), C 2dus (38), C 3tius (x), Bassus (x); Secondi chori: Primus Cantus (x), C 2dus (x), Altus (x), Bassus (49-50). UWAGA: metrum 2/2 i 3/2. Nie dodawać pustych linii, chyba że w rękopisie pojawiają się dodatkowe oznaczenia dotyczące pełnej obsady (a 4, a 8 itp.)
!!!AIN: 2 empty
!!!key:
**kern	**text	**kern	**text
*group1	*	*group1	*
*part2	*part2	*part1	*part1
*staff2	*staff2	*staff1	*staff1
*Iempty	*	*Iempty	*
*I"Bassus 2di Chori	*	*I"Cantus 2dus Primi Chori.	*
*I'[Coro 2 B]	*	*I'[Coro 1 C 2]	*
*clefC3	*	*clefC1	*
*k[b-]	*	*k[b-]	*
*g:	*	*g:	*
*M2/2	*	*M2/2	*
*met(C|)	*	*met(C|)	*
=1-	=1-	=1-	=1-
0r	.	1b-	Quis
=2-	=2-	=2-	=2-
.	.	2b-\	mi-
.	.	2a\	-chi
=3-	=3-	=3-	=3-
2r	.	2b-\	det
2B-/	Quis	2r	.
=4-	=4-	=4-	=4-
2f\	mi-	1r	.
2g\	-chi	.	.
=5-	=5-	=5-	=5-
2d\	det	2r	.
2r	.	2a\	te
=6-	=6-	=6-	=6-
0r	.	2a\	fra-
.	.	2b-\	-te-
=7-	=7-	=7-	=7-
.	.	1cc	-rum
=8-	=8-	=8-	=8-
1r	.	1dd	me-
=9-	=9-	=9-	=9-
*M3/2	*	*M3/2	*
2g\	ſu-	2dd\	-um
2g\	-gen-	2b-\	ſu-
2g\	-tem	2b-\	-gen-
=10-	=10-	=10-	=10-
2.c/	u-	2.cc\	-tem
4c/	-be-	4cc\	u-
2f\	-ra	2a\	-be-
*custos:c	*	*	*
!LO:LB:g=original	!	!	!
=11-	=11-	=11-	=11-
*M2/2	*	*M2/2	*
*met(C|)	*	*met(C|)	*
2c/	ma-	2cc\	-ra
2g\	-tris	4.b-\	ma-
.	.	8cc\	-tris
=12-	=12-	=12-	=12-
1d	me-	1dd	me-
=13-	=13-	=13-	=13-
!	!	!LO:TX:t=P:problem=# below	!
!	!	!LO:N:acc=#	!
1g	-ae	1bn	-ae
*	*	*custos:b-	*
!	!	!LO:LB:g=original	!
=14-	=14-	=14-	=14-
1r	.	4.b-\	ut
.	.	8a\	in-
.	.	4b-\	-ve-
.	.	4dd\	-ni-
=15-	=15-	=15-	=15-
4.g\	Ut	4dd\	-am
.	.	4dd\	te,
!LO:TX:t=P:problem=# below	!	!	!
8f#X\	in-	.	.
4g\	-ue-	2r	.
4d\	-ni-	.	.
=16-	=16-	=16-	=16-
4G/	-am	4.dd\	ut
4d\	te	.	.
.	.	8a\	in-
2r	.	4b-\	-ve-
.	.	4dd\	-ni-
=17-	=17-	=17-	=17-
4.g\	ut	4dd\	-a(m)
.	.	4dd\	te,
!LO:TX:t=P:problem=# above	!	!	!
8f#X\	in-	.	.
4g\	-ve-	2r	.
4d\	-ni-	.	.
=18-	=18-	=18-	=18-
4G/	-am	4.b-\	ut
4d\	te	.	.
.	.	8a\	in-
2r	.	4b-\	-ve-
.	.	4dd\	-ni-
=19-	=19-	=19-	=19-
0r	.	2dd\	-am
.	.	2dd\	te
=20-	=20-	=20-	=20-
.	.	2.b-\	ſo-
.	.	4b-\	-lum
=21-	=21-	=21-	=21-
1r	.	1cc	fo-
=22-	=22-	=22-	=22-
4r	.	2b-\	-ris
4B-/	et	.	.
4B-/	de-	2r	.
4F/	-o-	.	.
=23-	=23-	=23-	=23-
2G/	-ſcu-	2r	.
2d\	-ler	4r	.
.	.	4a\	et
=24-	=24-	=24-	=24-
1r	.	4cc\	de-
.	.	4dd\	-o
*	*	*custos:a	*
!	!	!LO:LB:g=original	!
.	.	2a\	ſcu-
=25-	=25-	=25-	=25-
2r	.	2b-\	-ler
2fny\	et	2cc\	et
*custos:B-	*	*	*
!LO:LB:g=original	!	!	!
=26-	=26-	=26-	=26-
2B-/	iam	2b-\	iam
2r	.	2r	.
=27-	=27-	=27-	=27-
1r	.	1r	.
=28-	=28-	=28-	=28-
2r	.	2r	.
2B-/	et	2b-\	et
=29-	=29-	=29-	=29-
2f\	iam	2cc\	iam
2r	.	2r	.
=30-	=30-	=30-	=30-
1r	.	1r	.
=31-	=31-	=31-	=31-
2r	.	2r	.
2g\	et	2dd\	et
=32-	=32-	=32-	=32-
2c/	iam	2cc\	iam
2r	.	2r	.
=33-	=33-	=33-	=33-
1r	.	0r	.
=34-	=34-	=34-	=34-
2r	.	.	.
4.B-/	ap-	.	.
8A/	-pre-	.	.
=35-	=35-	=35-	=35-
4B-/	-hen-	2r	.
4G/	-dam	.	.
2F/	te	4r	.
.	.	4cc\	et
=36-	=36-	=36-	=36-
1r	.	2b-\	du-
.	.	2cc\	-cam
=37-	=37-	=37-	=37-
4.B-/	ap-	1r	.
8c/	-pre-	.	.
4d\	-hen-	.	.
4f\	-dam	.	.
=38-	=38-	=38-	=38-
2B-/	te	4r	.
.	.	4a\	et
2r	.	2a\	du-
=39-	=39-	=39-	=39-
2r	.	2a\	-cam
4.f\	ap-	2r	.
8c/	-pre-	.	.
=40-	=40-	=40-	=40-
4f\	-hen-	2r	.
4g\	-dam	.	.
4c/	te	4r	.
4r	.	4dd\	et
=41-	=41-	=41-	=41-
!	!	!LO:TX:t=P:problem=# below	!
2r	.	2cc#X\	du-
!LO:PB:g=original	!	!	!
4r	.	4dd\	-cam
4B-/	in	4dd\	in
=42-	=42-	=42-	=42-
4d\	do-	4dd\	do-
4f\	-mum	4a\	-m(um)
*	*	*custos:g	*
!	!	!LO:LB:g=original	!
4c/	ma-	4g/	ma-
4g\	-tris	4b-\	-tris
=43-	=43-	=43-	=43-
2d\	me-	2a\	me-
2g\	-ae	2b-\	-ae
=44-	=44-	=44-	=44-
4B-/	et	0r	.
4B-/	in	.	.
4e-X\	cu-	.	.
4B-/	-bi-	.	.
=45-	=45-	=45-	=45-
2f\	-cu-	.	.
2B-/	-lum	.	.
=46-	=46-	=46-	=46-
4g\	ge-	4dd\	ge-
4g\	-ni-	4dd\	-ni-
4c/	-tri-	4ccny\	-tri-
4g\	-cis	4b-\	-cis
=47-	=47-	=47-	=47-
2d\	me-	2a\	me-
!	!	!LO:N:acc=#	!
!	!	!LO:TX:t=P:problem=# below	!
2g\	-ae	2bn\	-ae
=48-	=48-	=48-	=48-
4.B-/	i-	0r	.
8B-/	-bi	.	.
4B-/	me	.	.
4F/	do-	.	.
*custos:G	*	*	*
!LO:LB:g=original	!	!	!
=49-	=49-	=49-	=49-
2G/	-ce-	.	.
2d\	-bis	.	.
=50-	=50-	=50-	=50-
0r	.	4.dd\	i-
.	.	8dd\	-bi
.	.	4cc\	me
.	.	4b-\	do-
=51-	=51-	=51-	=51-
.	.	2a\	-ce-
.	.	4b-\	-bis
.	.	4dd\	.
=52-	=52-	=52-	=52-
4r	.	4b-\	da-
4d\	et	4a\	-bo
4g\	da-	4b-\	ti-
!LO:TX:t=P:problem=# below	!	!	!
4f#X\	-bo	4a\	-bi
=53-	=53-	=53-	=53-
4g\	ti-	4r	.
4d\	-bi	4dd\	et
4r	.	4b-\	da-
4d\	et	4a\	-bo
=54-	=54-	=54-	=54-
4g\	da-	4b-\	ti-
!LO:TX:t=P:problem=# below	!	!	!
4f#X\	-bo	4a\	-bi
4g\	ti-	4r	.
*	*	*custos:dd	*
!	!	!LO:LB:g=original	!
4d\	-bi	4dd\	et
=55-	=55-	=55-	=55-
4r	.	4b-\	da-
4d\	et	4a\	-bo
4g\	da-	4b-\	ti-
!LO:TX:t=P:problem=# below	!	!	!
4f#X\	-bo	4a\	-bi
=56-	=56-	=56-	=56-
4g\	ti-	2r	.
4d\	-bi	.	.
2r	.	4.dd\	po-
.	.	8dd\	-cu-
=57-	=57-	=57-	=57-
0r	.	4dd\	-lum
.	.	4cc\	ex
.	.	2b-\	vi-
=58-	=58-	=58-	=58-
.	.	4a\	-no
.	.	2dd\	con-
.	.	4cc\	-di-
=59-	=59-	=59-	=59-
4r	.	2dd\	-to
4d\	et	.	.
2A/	muſ-	2r	.
=60-	=60-	=60-	=60-
4d\	-tum	1r	.
4B-/	ma-	.	.
2fny\	-lo-	.	.
=61-	=61-	=61-	=61-
2B-/	-rum	4r	.
.	.	8b-\L	gra-
.	.	8b-\J	-na-
2r	.	2b-\	-to-
*custos:B-	*	*	*
!LO:LB:g=original	!	!	!
=62-	=62-	=62-	=62-
1r	.	4b-\	-rum
.	.	4b-\	me-
.	.	2a\	-o-
=63-	=63-	=63-	=63-
4r	.	2b-\	-rum
4B-/	et	.	.
2B-/	muſ-	2r	.
=64-	=64-	=64-	=64-
4e-X\	-tum	1r	.
4B-/	ma-	.	.
2f\	-lo-	.	.
=65-	=65-	=65-	=65-
2B-/	-rum	4r	.
.	.	8dd\L	gra-
.	.	8dd\J	-na-
*	*	*custos:dd	*
!	!	!LO:LB:g=original	!
2r	.	2dd\	-to-
=66-	=66-	=66-	=66-
1r	.	4b-\	.
.	.	4b-\	-rum
.	.	2cc\	me-
=67-	=67-	=67-	=67-
2r	.	2dd\,<	-o-
4d\	gra-	4dd\	-rum
4g\	-na-	4b-\,<	.
=68-	=68-	=68-	=68-
1g	-to-	1b-	gra-
=69-	=69-	=69-	=69-
2c/	-rum	2cc\,<	-na-
2g\	me-	2b-\	-to-
=70-	=70-	=70-	=70-
0d	-o-	1dd.	-rum
=71-	=71-	=71-	=71-
.	.	2a\	me-
=72-	=72-	=72-	=72-
0g	-rum	0b-	-o-
=73-	=73-	=73-	=73-
.	.	.	.
=74-	=74-	=74-	=74-
0g	.	0b-	-rum?
=-	=-	=-	=-
*-	*-	*-	*-
!!!system-decoration: [(g1)]
!!!RDF**kern: > = above
!!!RDF**kern: < = below
!!!ENC: Anastazja Marusiak
!!!END: 2021-10-01
!!!EED: Jędrzej Mróz
!!!ESR: 2021-10-07
